X:2832d
T:Hej tomtegubbar, spela pols...
T:Variation 4
R:Pols
M:3/4
L:1/8
Q:1/4=160
K:D
(vA|{c}d2)(A<B) A>G|(F>G) A2 A>c|(3vd(uef g>)(e f>)[df]|([df][ce])[A3A3] (A|!
{c}d2)(A<B) A>G|(F>G) A2 A>c|(3vd(uef g>)(e f>)[df]|([df][ce])[D3d3]:|!
(vc|[D3/d3/])(ue/ f{dc}[df]) e>c|{c}[D3/d3/](e/ f{dc}[df]) e>c|{c}[D3/d3/](e/ f{dc}[df]) e>d|(3(ef^g) [A3a3] (A|!
{c}d2)(A<B) A>G|(F>G) A2 A>c|(3vd(uef g>)(e f>)[df]|([df][ce])[D3d3]|]
(:musicend:)

Se även:
* [[http://www.sormlandsmusikarkiv.se/noter/pettersson,_sp-holm/pettersson_sp-holm.pdf|Sörmlands musikarkiv - Johan Pettersson, Sparreholm]] (pdf) nr 46
* [[http://www.smus.se/earkiv/fmk/browselarge.php?lang=sw&katalogid=Svldiv+2%3A38&bildnr=00053|SMUS - katalog Svldiv 2:38 bild 53]]
(:music:)
